X:78
T:Chasing Talon
C:Tim O'Brien
N:Transcribed by Tristan Scroggins
R:bluegrass
L:1/8
Q:1/4=220
M:4/4
K:G
|: cd cd ed ce | dc Ac BA GB | AF dc AF DF | EC EG FD Dc | 
|d2 cd ed ce | dc Ac BA GB | AF dc AF DF | EC EF D4 :|
|: (3DED CE GE CE | D2 FD AF DA | (3DED CE GE CB, | [E7/1A,7/1]D | 
E2 CE GE CE | DA FD AF D2 | Ac de dc AG | FD EG FD D2 :| 

